X: 11
T: Yellow Dog Blues
M:4/4
L:1/8
S: Viola "Mom" Ruth - Pioneer Western Folk Tunes (1948)
Z:AK/Fiddler's Companion
K:D
D/E/F/(A/ A/)F/E/D/|G/A/B/(d/ d2)|=f/^f/=f/^f/ d/B/A/F/|F/E/F/(d/ d2)|
D/E/F/(A/ A/)F/E/D/|G/A/B/(d/ d2)|=f/^f/=f/^f/ d/B/A/F/|F/E/F/(d/ d)(3e/f/g/||
a/e/f/(d/ d)(f/g/)|a/e/f/(d/ d2)|G/A/B/d/ e/d/e|=f/^f/=f/^f/ d/B/A|
(FF)(A/B/)|c/e/c/(A/ A)(A/B/)|c/e/c/(A/ A2)|=f/^f/=f/^f/ d/B/A/F/|1
([F2d2] [F2d2]):|2 df (d'2|d'2)z2||

%%sep 1 1 500
